lib/brands/icons/adobe-creativecloud.svg

<svg xmlns="http://www.w3.org/2000/svg" fill="none" aria-hidden="true" viewBox="0 0 48 48"><g id="adobe-creativecloud-Icon"><g id="Group"><g id="bg"><path fill="white" d="M6 19.0286C6 14.4681 6 12.1879 6.88752 10.4461C7.6682 8.9139 8.9139 7.6682 10.4461 6.88752C12.1879 6 14.4681 6 19.0286 6H28.9714C33.5319 6 35.8121 6 37.5539 6.88752C39.0861 7.6682 40.3318 8.9139 41.1125 10.4461C42 12.1879 42 14.4681 42 19.0286V28.9714C42 33.5319 42 35.8121 41.1125 37.5539C40.3318 39.0861 39.0861 40.3318 37.5539 41.1125C35.8121 42 33.5319 42 28.9714 42H19.0286C14.4681 42 12.1879 42 10.4461 41.1125C8.9139 40.3318 7.6682 39.0861 6.88752 37.5539C6 35.8121 6 33.5319 6 28.9714V19.0286Z"/><path fill="url(#paint0_radial_94_17307)" d="M6 19.0286C6 14.4681 6 12.1879 6.88752 10.4461C7.6682 8.9139 8.9139 7.6682 10.4461 6.88752C12.1879 6 14.4681 6 19.0286 6H28.9714C33.5319 6 35.8121 6 37.5539 6.88752C39.0861 7.6682 40.3318 8.9139 41.1125 10.4461C42 12.1879 42 14.4681 42 19.0286V28.9714C42 33.5319 42 35.8121 41.1125 37.5539C40.3318 39.0861 39.0861 40.3318 37.5539 41.1125C35.8121 42 33.5319 42 28.9714 42H19.0286C14.4681 42 12.1879 42 10.4461 41.1125C8.9139 40.3318 7.6682 39.0861 6.88752 37.5539C6 35.8121 6 33.5319 6 28.9714V19.0286Z"/><path fill="url(#paint1_radial_94_17307)" d="M6 19.0286C6 14.4681 6 12.1879 6.88752 10.4461C7.6682 8.9139 8.9139 7.6682 10.4461 6.88752C12.1879 6 14.4681 6 19.0286 6H28.9714C33.5319 6 35.8121 6 37.5539 6.88752C39.0861 7.6682 40.3318 8.9139 41.1125 10.4461C42 12.1879 42 14.4681 42 19.0286V28.9714C42 33.5319 42 35.8121 41.1125 37.5539C40.3318 39.0861 39.0861 40.3318 37.5539 41.1125C35.8121 42 33.5319 42 28.9714 42H19.0286C14.4681 42 12.1879 42 10.4461 41.1125C8.9139 40.3318 7.6682 39.0861 6.88752 37.5539C6 35.8121 6 33.5319 6 28.9714V19.0286Z"/><path fill="url(#paint2_radial_94_17307)" d="M6 19.0286C6 14.4681 6 12.1879 6.88752 10.4461C7.6682 8.9139 8.9139 7.6682 10.4461 6.88752C12.1879 6 14.4681 6 19.0286 6H28.9714C33.5319 6 35.8121 6 37.5539 6.88752C39.0861 7.6682 40.3318 8.9139 41.1125 10.4461C42 12.1879 42 14.4681 42 19.0286V28.9714C42 33.5319 42 35.8121 41.1125 37.5539C40.3318 39.0861 39.0861 40.3318 37.5539 41.1125C35.8121 42 33.5319 42 28.9714 42H19.0286C14.4681 42 12.1879 42 10.4461 41.1125C8.9139 40.3318 7.6682 39.0861 6.88752 37.5539C6 35.8121 6 33.5319 6 28.9714V19.0286Z"/><path fill="url(#paint3_radial_94_17307)" d="M6 19.0286C6 14.4681 6 12.1879 6.88752 10.4461C7.6682 8.9139 8.9139 7.6682 10.4461 6.88752C12.1879 6 14.4681 6 19.0286 6H28.9714C33.5319 6 35.8121 6 37.5539 6.88752C39.0861 7.6682 40.3318 8.9139 41.1125 10.4461C42 12.1879 42 14.4681 42 19.0286V28.9714C42 33.5319 42 35.8121 41.1125 37.5539C40.3318 39.0861 39.0861 40.3318 37.5539 41.1125C35.8121 42 33.5319 42 28.9714 42H19.0286C14.4681 42 12.1879 42 10.4461 41.1125C8.9139 40.3318 7.6682 39.0861 6.88752 37.5539C6 35.8121 6 33.5319 6 28.9714V19.0286Z"/><path fill="url(#paint4_radial_94_17307)" d="M6 19.0286C6 14.4681 6 12.1879 6.88752 10.4461C7.6682 8.9139 8.9139 7.6682 10.4461 6.88752C12.1879 6 14.4681 6 19.0286 6H28.9714C33.5319 6 35.8121 6 37.5539 6.88752C39.0861 7.6682 40.3318 8.9139 41.1125 10.4461C42 12.1879 42 14.4681 42 19.0286V28.9714C42 33.5319 42 35.8121 41.1125 37.5539C40.3318 39.0861 39.0861 40.3318 37.5539 41.1125C35.8121 42 33.5319 42 28.9714 42H19.0286C14.4681 42 12.1879 42 10.4461 41.1125C8.9139 40.3318 7.6682 39.0861 6.88752 37.5539C6 35.8121 6 33.5319 6 28.9714V19.0286Z"/><path fill="url(#paint5_radial_94_17307)" d="M6 19.0286C6 14.4681 6 12.1879 6.88752 10.4461C7.6682 8.9139 8.9139 7.6682 10.4461 6.88752C12.1879 6 14.4681 6 19.0286 6H28.9714C33.5319 6 35.8121 6 37.5539 6.88752C39.0861 7.6682 40.3318 8.9139 41.1125 10.4461C42 12.1879 42 14.4681 42 19.0286V28.9714C42 33.5319 42 35.8121 41.1125 37.5539C40.3318 39.0861 39.0861 40.3318 37.5539 41.1125C35.8121 42 33.5319 42 28.9714 42H19.0286C14.4681 42 12.1879 42 10.4461 41.1125C8.9139 40.3318 7.6682 39.0861 6.88752 37.5539C6 35.8121 6 33.5319 6 28.9714V19.0286Z"/><path fill="url(#paint6_radial_94_17307)" d="M6 19.0286C6 14.4681 6 12.1879 6.88752 10.4461C7.6682 8.9139 8.9139 7.6682 10.4461 6.88752C12.1879 6 14.4681 6 19.0286 6H28.9714C33.5319 6 35.8121 6 37.5539 6.88752C39.0861 7.6682 40.3318 8.9139 41.1125 10.4461C42 12.1879 42 14.4681 42 19.0286V28.9714C42 33.5319 42 35.8121 41.1125 37.5539C40.3318 39.0861 39.0861 40.3318 37.5539 41.1125C35.8121 42 33.5319 42 28.9714 42H19.0286C14.4681 42 12.1879 42 10.4461 41.1125C8.9139 40.3318 7.6682 39.0861 6.88752 37.5539C6 35.8121 6 33.5319 6 28.9714V19.0286Z"/></g><path id="256" fill="white" d="M34.8902 16.8462C32.9852 14.7385 30.3002 13.5539 27.5102 13.5693C24.7802 13.5693 22.0052 14.7693 20.2202 16.7077C19.8902 16.677 19.5602 16.6462 19.2452 16.6462C13.8902 16.6462 10.5752 21.2616 10.5752 25.5385C10.5902 27.8462 11.4602 30.0616 13.0052 31.7539C14.6252 33.5231 16.8752 34.5231 19.2452 34.5231H27.5102C33.1202 34.5231 37.6802 29.8 37.6802 24.0154C37.6502 21.3539 36.6602 18.8 34.8902 16.8462ZM19.0802 33.0154C15.1052 33.0154 11.8952 29.7077 11.8952 25.6308C11.8952 21.5847 15.0902 18.2923 19.0502 18.2616C20.8052 18.2616 22.6502 18.8462 23.8202 20.1231L26.8352 23.2923C27.3302 23.8154 27.3152 24.6462 26.8052 25.1539C26.2952 25.6616 25.4852 25.6462 24.9902 25.1231L22.0502 22.0154C20.1302 20.3231 17.2352 20.5385 15.5852 22.5077C14.8652 23.3539 14.4752 24.4462 14.4752 25.5693C14.4752 28.1539 16.6202 30.3385 19.1552 30.3385H19.7402C20.5802 31.5385 22.9352 33.0154 22.9352 33.0154H19.0802ZM33.8102 30.3693C32.2052 32.0923 29.9852 33.0616 27.6602 33.077C25.4552 33.077 23.2052 32.0616 21.4802 30.3077L17.5502 26.2462C17.0552 25.7231 17.0702 24.8923 17.5652 24.3847C17.8052 24.1385 18.1202 24.0154 18.4652 24.0154C18.8102 24.0154 19.1402 24.1539 19.3802 24.4154L23.2952 28.4308C24.5402 29.7077 26.1302 30.4308 27.6602 30.4308C29.2952 30.4308 30.8552 29.7385 31.9802 28.5077C33.1352 27.2923 33.7802 25.6616 33.7802 23.9693C33.7802 20.4923 31.0202 17.677 27.6302 17.6616C26.3402 17.6616 25.2752 17.9231 24.2252 18.677C23.6308 18.0673 22.3502 17.4616 21.7652 17.3385C23.3852 15.7847 25.4102 15.0308 27.6302 15.0308C32.4452 15.0308 36.3302 19.0308 36.3452 23.9693C36.3452 26.3539 35.4452 28.6616 33.8102 30.3693Z"/></g></g><defs><radialGradient id="paint0_radial_94_17307" cx="0" cy="0" r="1" gradientTransform="matrix(14.70004 15.69233 -16.07321 15.05684 35.925 36.77)" gradientUnits="userSpaceOnUse"><stop stop-color="#68E048"/><stop offset="1" stop-color="#5CE049" stop-opacity="0"/></radialGradient><radialGradient id="paint1_radial_94_17307" cx="0" cy="0" r="1" gradientTransform="rotate(137.364 -1.295 20.59) scale(21.9186 22.5347)" gradientUnits="userSpaceOnUse"><stop stop-color="#308CFE"/><stop offset="1" stop-color="#2F8BFF" stop-opacity="0"/></radialGradient><radialGradient id="paint2_radial_94_17307" cx="0" cy="0" r="1" gradientTransform="rotate(7.9 -171.756 268.324) scale(12.8722 13.5281)" gradientUnits="userSpaceOnUse"><stop stop-color="#FDD511"/><stop offset="1" stop-color="#FDD20D" stop-opacity="0"/></radialGradient><radialGradient id="paint3_radial_94_17307" cx="0" cy="0" r="1" gradientTransform="rotate(-127.134 10.798 6.48) scale(19.0083 19.3681)" gradientUnits="userSpaceOnUse"><stop stop-color="#F928C2"/><stop offset="1" stop-color="#F922BC" stop-opacity="0"/></radialGradient><radialGradient id="paint4_radial_94_17307" cx="0" cy="0" r="1" gradientTransform="matrix(8.54998 -17.07689 17.25474 8.63902 26.4 12)" gradientUnits="userSpaceOnUse"><stop stop-color="#F90700"/><stop offset="1" stop-color="#F90700" stop-opacity="0"/></radialGradient><radialGradient id="paint5_radial_94_17307" cx="0" cy="0" r="1" gradientTransform="matrix(4.725 -10.46155 10.5536 4.76657 40.05 11.23)" gradientUnits="userSpaceOnUse"><stop stop-color="#FB4200"/><stop offset="1" stop-color="#FB4300" stop-opacity="0"/></radialGradient><radialGradient id="paint6_radial_94_17307" cx="0" cy="0" r="1" gradientTransform="rotate(-133.672 7.097 3.106) scale(10.2096 10.4624)" gradientUnits="userSpaceOnUse"><stop stop-color="#FE0D88"/><stop offset="1" stop-color="#FE0D88" stop-opacity="0"/></radialGradient></defs></svg>

<svg xmlns="http://www.w3.org/2000/svg" fill="none" aria-hidden="true" viewBox="0 0 48 48"><path fill="#fff" d="M6 19.029c0-4.56 0-6.841.888-8.583a8.143 8.143 0 0 1 3.558-3.558C12.188 6 14.468 6 19.03 6h9.942c4.56 0 6.841 0 8.583.888a8.143 8.143 0 0 1 3.558 3.558C42 12.188 42 14.468 42 19.03v9.942c0 4.56 0 6.841-.888 8.583a8.143 8.143 0 0 1-3.558 3.558C35.812 42 33.532 42 28.97 42h-9.94c-4.56 0-6.841 0-8.583-.888a8.143 8.143 0 0 1-3.558-3.558C6 35.812 6 33.532 6 28.97v-9.94Z"/><path fill="url(#a)" d="M6 19.029c0-4.56 0-6.841.888-8.583a8.143 8.143 0 0 1 3.558-3.558C12.188 6 14.468 6 19.03 6h9.942c4.56 0 6.841 0 8.583.888a8.143 8.143 0 0 1 3.558 3.558C42 12.188 42 14.468 42 19.03v9.942c0 4.56 0 6.841-.888 8.583a8.143 8.143 0 0 1-3.558 3.558C35.812 42 33.532 42 28.97 42h-9.94c-4.56 0-6.841 0-8.583-.888a8.143 8.143 0 0 1-3.558-3.558C6 35.812 6 33.532 6 28.97v-9.94Z"/><path fill="url(#b)" d="M6 19.029c0-4.56 0-6.841.888-8.583a8.143 8.143 0 0 1 3.558-3.558C12.188 6 14.468 6 19.03 6h9.942c4.56 0 6.841 0 8.583.888a8.143 8.143 0 0 1 3.558 3.558C42 12.188 42 14.468 42 19.03v9.942c0 4.56 0 6.841-.888 8.583a8.143 8.143 0 0 1-3.558 3.558C35.812 42 33.532 42 28.97 42h-9.94c-4.56 0-6.841 0-8.583-.888a8.143 8.143 0 0 1-3.558-3.558C6 35.812 6 33.532 6 28.97v-9.94Z"/><path fill="url(#c)" d="M6 19.029c0-4.56 0-6.841.888-8.583a8.143 8.143 0 0 1 3.558-3.558C12.188 6 14.468 6 19.03 6h9.942c4.56 0 6.841 0 8.583.888a8.143 8.143 0 0 1 3.558 3.558C42 12.188 42 14.468 42 19.03v9.942c0 4.56 0 6.841-.888 8.583a8.143 8.143 0 0 1-3.558 3.558C35.812 42 33.532 42 28.97 42h-9.94c-4.56 0-6.841 0-8.583-.888a8.143 8.143 0 0 1-3.558-3.558C6 35.812 6 33.532 6 28.97v-9.94Z"/><path fill="url(#d)" d="M6 19.029c0-4.56 0-6.841.888-8.583a8.143 8.143 0 0 1 3.558-3.558C12.188 6 14.468 6 19.03 6h9.942c4.56 0 6.841 0 8.583.888a8.143 8.143 0 0 1 3.558 3.558C42 12.188 42 14.468 42 19.03v9.942c0 4.56 0 6.841-.888 8.583a8.143 8.143 0 0 1-3.558 3.558C35.812 42 33.532 42 28.97 42h-9.94c-4.56 0-6.841 0-8.583-.888a8.143 8.143 0 0 1-3.558-3.558C6 35.812 6 33.532 6 28.97v-9.94Z"/><path fill="url(#e)" d="M6 19.029c0-4.56 0-6.841.888-8.583a8.143 8.143 0 0 1 3.558-3.558C12.188 6 14.468 6 19.03 6h9.942c4.56 0 6.841 0 8.583.888a8.143 8.143 0 0 1 3.558 3.558C42 12.188 42 14.468 42 19.03v9.942c0 4.56 0 6.841-.888 8.583a8.143 8.143 0 0 1-3.558 3.558C35.812 42 33.532 42 28.97 42h-9.94c-4.56 0-6.841 0-8.583-.888a8.143 8.143 0 0 1-3.558-3.558C6 35.812 6 33.532 6 28.97v-9.94Z"/><path fill="url(#f)" d="M6 19.029c0-4.56 0-6.841.888-8.583a8.143 8.143 0 0 1 3.558-3.558C12.188 6 14.468 6 19.03 6h9.942c4.56 0 6.841 0 8.583.888a8.143 8.143 0 0 1 3.558 3.558C42 12.188 42 14.468 42 19.03v9.942c0 4.56 0 6.841-.888 8.583a8.143 8.143 0 0 1-3.558 3.558C35.812 42 33.532 42 28.97 42h-9.94c-4.56 0-6.841 0-8.583-.888a8.143 8.143 0 0 1-3.558-3.558C6 35.812 6 33.532 6 28.97v-9.94Z"/><path fill="url(#g)" d="M6 19.029c0-4.56 0-6.841.888-8.583a8.143 8.143 0 0 1 3.558-3.558C12.188 6 14.468 6 19.03 6h9.942c4.56 0 6.841 0 8.583.888a8.143 8.143 0 0 1 3.558 3.558C42 12.188 42 14.468 42 19.03v9.942c0 4.56 0 6.841-.888 8.583a8.143 8.143 0 0 1-3.558 3.558C35.812 42 33.532 42 28.97 42h-9.94c-4.56 0-6.841 0-8.583-.888a8.143 8.143 0 0 1-3.558-3.558C6 35.812 6 33.532 6 28.97v-9.94Z"/><path fill="#fff" d="M34.89 16.846a9.882 9.882 0 0 0-7.38-3.277c-2.73 0-5.505 1.2-7.29 3.139-.33-.031-.66-.062-.975-.062-5.355 0-8.67 4.616-8.67 8.892a9.312 9.312 0 0 0 2.43 6.216 8.446 8.446 0 0 0 6.24 2.77h8.265c5.61 0 10.17-4.724 10.17-10.509a10.855 10.855 0 0 0-2.79-7.169Zm-15.81 16.17c-3.975 0-7.185-3.308-7.185-7.385 0-4.046 3.195-7.339 7.155-7.37 1.755 0 3.6.585 4.77 1.862l3.015 3.17c.495.522.48 1.353-.03 1.86-.51.509-1.32.493-1.815-.03l-2.94-3.108a4.505 4.505 0 0 0-6.465.493 4.728 4.728 0 0 0-1.11 3.061c0 2.585 2.145 4.77 4.68 4.77h.585c.84 1.2 3.195 2.676 3.195 2.676H19.08Zm14.73-2.647a8.47 8.47 0 0 1-6.15 2.708c-2.205 0-4.455-1.015-6.18-2.77l-3.93-4.06a1.352 1.352 0 0 1 .015-1.862c.24-.247.555-.37.9-.37s.675.139.915.4l3.915 4.016c1.245 1.277 2.835 2 4.365 2a5.846 5.846 0 0 0 4.32-1.923 6.594 6.594 0 0 0 1.8-4.539c0-3.477-2.76-6.292-6.15-6.307-1.29 0-2.355.261-3.405 1.015-.595-.61-1.875-1.215-2.46-1.338 1.62-1.554 3.645-2.308 5.865-2.308 4.815 0 8.7 4 8.715 8.938 0 2.385-.9 4.693-2.535 6.4Z"/><defs><radialGradient id="a" cx="0" cy="0" r="1" gradientTransform="matrix(14.70004 15.69233 -16.07321 15.05684 35.925 36.77)" gradientUnits="userSpaceOnUse"><stop stop-color="#68E048"/><stop offset="1" stop-color="#5CE049" stop-opacity="0"/></radialGradient><radialGradient id="b" cx="0" cy="0" r="1" gradientTransform="rotate(137.364 -1.295 20.59) scale(21.9186 22.5347)" gradientUnits="userSpaceOnUse"><stop stop-color="#308CFE"/><stop offset="1" stop-color="#2F8BFF" stop-opacity="0"/></radialGradient><radialGradient id="c" cx="0" cy="0" r="1" gradientTransform="rotate(7.9 -171.756 268.324) scale(12.8722 13.5281)" gradientUnits="userSpaceOnUse"><stop stop-color="#FDD511"/><stop offset="1" stop-color="#FDD20D" stop-opacity="0"/></radialGradient><radialGradient id="d" cx="0" cy="0" r="1" gradientTransform="rotate(-127.134 10.798 6.48) scale(19.0083 19.3681)" gradientUnits="userSpaceOnUse"><stop stop-color="#F928C2"/><stop offset="1" stop-color="#F922BC" stop-opacity="0"/></radialGradient><radialGradient id="e" cx="0" cy="0" r="1" gradientTransform="matrix(8.54998 -17.07689 17.25474 8.63902 26.4 12)" gradientUnits="userSpaceOnUse"><stop stop-color="#F90700"/><stop offset="1" stop-color="#F90700" stop-opacity="0"/></radialGradient><radialGradient id="f" cx="0" cy="0" r="1" gradientTransform="matrix(4.725 -10.46155 10.5536 4.76657 40.05 11.23)" gradientUnits="userSpaceOnUse"><stop stop-color="#FB4200"/><stop offset="1" stop-color="#FB4300" stop-opacity="0"/></radialGradient><radialGradient id="g" cx="0" cy="0" r="1" gradientTransform="rotate(-133.672 7.097 3.106) scale(10.2096 10.4624)" gradientUnits="userSpaceOnUse"><stop stop-color="#FE0D88"/><stop offset="1" stop-color="#FE0D88" stop-opacity="0"/></radialGradient></defs></svg>
